svgs/sharp-light/shield-cross.svg

<svg xmlns="http://www.w3.org/2000/svg" viewBox="0 0 512 512"><!--! Font Awesome Pro 6.6.0 by @fontawesome - https://fontawesome.com License - https://fontawesome.com/license (Commercial License) Copyright 2024 Fonticons, Inc. --><path d="M48.5 114.9L256 34.3l207.5 80.5c2.7 45.6-4.5 116.8-34.7 186.3S345.4 438.4 256 477.1C166.6 438.4 113.4 370.7 83.2 301.2S45.8 160.5 48.5 114.9zm447-1.9l-1.2-20.5L475.1 85 267.6 4.5 256 0 244.4 4.5 36.9 85 17.8 92.5 16.6 113c-2.9 49.9 4.9 126.3 37.3 200.9c32.7 75.3 91 150 189.4 192.6L256 512l12.7-5.5c98.4-42.6 156.7-117.3 189.4-192.6c32.4-74.7 40.2-151 37.3-200.9zM272 112l0-16-32 0 0 16 0 64-128 0-16 0 0 32 16 0 128 0 0 192 0 16 32 0 0-16 0-192 128 0 16 0 0-32-16 0-128 0 0-64z"/></svg>

<svg xmlns="http://www.w3.org/2000/svg" viewBox="0 0 512 512"><!--! Font Awesome Pro 6.4.0 by @fontawesome - https://fontawesome.com License - https://fontawesome.com/license (Commercial License) Copyright 2023 Fonticons, Inc. --><path d="M48.5 114.9L256 34.3l207.5 80.5c2.7 45.6-4.5 116.8-34.7 186.3S345.4 438.4 256 477.1C166.6 438.4 113.4 370.7 83.2 301.2S45.8 160.5 48.5 114.9zm447-1.9l-1.2-20.5L475.1 85 267.6 4.5 256 0 244.4 4.5 36.9 85 17.8 92.5 16.6 113c-2.9 49.9 4.9 126.3 37.3 200.9c32.7 75.3 91 150 189.4 192.6L256 512l12.7-5.5c98.4-42.6 156.7-117.3 189.4-192.6c32.4-74.7 40.2-151 37.3-200.9zM272 112V96H240v16 64H112 96v32h16H240V400v16h32V400 208H400h16V176H400 272V112z"/></svg>
